source/images/customer-logos/ibm.svg

<?xml version="1.0" encoding="utf-8"?>
<!-- Generator: Adobe Illustrator 21.0.2, SVG Export Plug-In . SVG Version: 6.00 Build 0)  -->
<svg version="1.1" id="Layer_1" xmlns="http://www.w3.org/2000/svg" xmlns:xlink="http://www.w3.org/1999/xlink" x="0px" y="0px"
	 viewBox="0 0 93.7 37.8" style="enable-background:new 0 0 93.7 37.8;" xml:space="preserve">
<style type="text/css">
	.Arched_x0020_Green{fill:url(#SVGID_1_);stroke:#FFFFFF;stroke-width:0.25;stroke-miterlimit:1;}
	.st0{fill:#4C83C3;}
</style>
<linearGradient id="SVGID_1_" gradientUnits="userSpaceOnUse" x1="-250.962" y1="414.9521" x2="-250.2549" y2="414.245">
	<stop  offset="0" style="stop-color:#20AC4B"/>
	<stop  offset="0.9831" style="stop-color:#19361A"/>
</linearGradient>
<g>
	<polygon class="st0" points="93.7,2.7 78.1,2.7 79.1,0 93.7,0 	"/>
	<path class="st0" d="M52.1,0l14.5,0l0.9,2.7c0,0-15.4,0-15.4,0C52.1,2.7,52.1,0,52.1,0z"/>
	<path class="st0" d="M40.6,0c2.4,0.2,4.5,1.1,6.2,2.7c0,0-26.3,0-26.3,0c0,0,0-2.7,0-2.7L40.6,0z"/>
	<g>
		<rect x="0" y="0" class="st0" width="18.2" height="2.7"/>
		<path class="st0" d="M9.1,1.3"/>
	</g>
	<path class="st0" d="M93.7,7.7H76.3c0,0,0.9-2.7,0.9-2.7h16.4V7.7z"/>
	<polygon class="st0" points="69.4,7.7 52.1,7.7 52.1,5.1 68.4,5.1 	"/>
	<path class="st0" d="M48.9,5.1c0.3,0.9,0.8,1.6,0.8,2.7H20.6V5.1H48.9z"/>
	<g>
		<rect x="0" y="5.1" class="st0" width="18.2" height="2.7"/>
		<path class="st0" d="M9.1,6.4"/>
	</g>
	<polygon class="st0" points="74.6,12.8 75.5,10.1 88.6,10.1 88.6,12.8 	"/>
	<polygon class="st0" points="70.2,10.1 71.2,12.8 57.3,12.8 57.3,10.1 	"/>
	<path class="st0" d="M49.9,10.1c0,0.9-0.1,1.9-0.4,2.7h-8v-2.7H49.9z"/>
	<g>
		<rect x="5.1" y="10.1" class="st0" width="7.8" height="2.7"/>
		<path class="st0" d="M9,11.5"/>
	</g>
	<g>
		<rect x="25.9" y="10.1" class="st0" width="7.8" height="2.7"/>
		<path class="st0" d="M29.8,11.5"/>
	</g>
	<path class="st0" d="M65,15.7c0,0,0,2,0,2h-7.7v-2.7H72l0.9,2.5c0,0,0.9-2.5,0.9-2.5h14.8v2.7h-7.7c0,0,0-2,0-2l-0.7,2l-14.5,0
		L65,15.7z"/>
	<path class="st0" d="M25.9,15.1h22.5v0c-0.5,0.9-1.4,2-2.2,2.7c0,0-20.2,0-20.2,0C25.9,17.7,25.9,15.1,25.9,15.1z"/>
	<g>
		<rect x="5.1" y="15.1" class="st0" width="7.8" height="2.7"/>
		<path class="st0" d="M9,16.4"/>
	</g>
	<g>
		<rect x="80.9" y="20.1" class="st0" width="7.7" height="2.7"/>
		<path class="st0" d="M84.7,21.5"/>
	</g>
	<path class="st0" d="M65,20.1h-7.7v2.7c0,0,7.7,0,7.7,0C65,22.8,65,20.1,65,20.1z"/>
	<path class="st0" d="M79.4,20.1c0,0-0.9,2.7-0.9,2.7l-10.9,0c0,0-1-2.7-1-2.7H79.4z"/>
	<path class="st0" d="M25.9,20.1h20.2c0.9,0.8,1.8,1.7,2.4,2.7c0,0-22.6,0-22.6,0C25.9,22.8,25.9,20.1,25.9,20.1z"/>
	<polygon class="st0" points="12.9,22.8 12.9,20.1 5.1,20.1 5.1,22.8 	"/>
	<g>
		<rect x="80.9" y="25.2" class="st0" width="7.7" height="2.7"/>
		<path class="st0" d="M84.7,26.5"/>
	</g>
	<g>
		<rect x="57.3" y="25.2" class="st0" width="7.7" height="2.7"/>
		<path class="st0" d="M61.1,26.5"/>
	</g>
	<path class="st0" d="M76.6,27.9c0,0,0.9-2.7,1-2.7h-9.3c0,0,1,2.7,1,2.7S76.6,27.9,76.6,27.9z"/>
	<path class="st0" d="M25.9,27.8c0,0,0-2.7,0-2.7h7.9c0,0,0,2.7,0,2.7C33.8,27.8,25.9,27.8,25.9,27.8z"/>
	<path class="st0" d="M49.6,25.2c0.4,0.8,0.4,1.8,0.5,2.7h-8.4v-2.7H49.6z"/>
	<g>
		<rect x="5.1" y="25.2" class="st0" width="7.8" height="2.7"/>
		<path class="st0" d="M9,26.5"/>
	</g>
	<g>
		<rect x="80.9" y="30.1" class="st0" width="12.8" height="2.7"/>
		<path class="st0" d="M87.3,31.4"/>
	</g>
	<g>
		<rect x="52.1" y="30.1" class="st0" width="12.8" height="2.7"/>
		<path class="st0" d="M58.6,31.4"/>
	</g>
	<polygon class="st0" points="74.9,32.8 71,32.8 70,30.1 75.8,30.1 	"/>
	<path class="st0" d="M0,30.1v2.7h18.2c0,0,0-2.7,0-2.7C18.2,30.1,0,30.1,0,30.1z"/>
	<path class="st0" d="M49.8,30.1c-0.2,0.9-0.4,2-1,2.7l-0.2,0H20.6v-2.7H49.8z"/>
	<polygon class="st0" points="73.1,37.8 72.8,37.8 71.8,35.2 74.1,35.2 	"/>
	<g>
		<rect x="80.9" y="35.2" class="st0" width="12.8" height="2.7"/>
		<path class="st0" d="M87.3,36.5"/>
	</g>
	<path class="st0" d="M20.6,37.8v-2.7c0,0,26.3,0,26.4,0c-1.8,1.7-4.2,2.6-6.8,2.7L20.6,37.8"/>
	<g>
		<rect x="52.1" y="35.2" class="st0" width="12.8" height="2.7"/>
		<path class="st0" d="M58.6,36.5"/>
	</g>
	<path class="st0" d="M18.2,35.2c0,0,0,2.7,0,2.7c0,0-18.2,0-18.2,0c0,0,0-2.7,0-2.7S18.2,35.2,18.2,35.2z"/>
</g>
</svg>

<?xml version="1.0" encoding="UTF-8"?>
<svg width="94px" height="38px" viewBox="0 0 94 38" version="1.1" xmlns="http://www.w3.org/2000/svg" xmlns:xlink="http://www.w3.org/1999/xlink">
    <!-- Generator: Sketch 47.1 (45422) - http://www.bohemiancoding.com/sketch -->
    <title>ibm</title>
    <desc>Created with Sketch.</desc>
    <defs></defs>
    <g id="index" stroke="none" stroke-width="1" fill="none" fill-rule="evenodd">
        <g transform="translate(-813.000000, -2650.000000)" id="ibm" fill-rule="nonzero" fill="#434054">
            <g transform="translate(813.000000, 2650.000000)">
                <polygon id="Shape" points="93.7 2.7 78.1 2.7 79.1 0 93.7 0"></polygon>
                <path d="M52.1,0 L66.6,0 L67.5,2.7 C67.5,2.7 52.1,2.7 52.1,2.7 C52.1,2.7 52.1,0 52.1,0 Z" id="Shape"></path>
                <path d="M40.6,0 C43,0.2 45.1,1.1 46.8,2.7 C46.8,2.7 20.5,2.7 20.5,2.7 C20.5,2.7 20.5,0 20.5,0 L40.6,0 Z" id="Shape"></path>
                <g id="Group">
                    <rect id="Rectangle-path" x="0" y="0" width="18.2" height="2.7"></rect>
                </g>
                <path d="M93.7,7.7 L76.3,7.7 C76.3,7.7 77.2,5 77.2,5 L93.6,5 L93.6,7.7 L93.7,7.7 Z" id="Shape"></path>
                <polygon id="Shape" points="69.4 7.7 52.1 7.7 52.1 5.1 68.4 5.1"></polygon>
                <path d="M48.9,5.1 C49.2,6 49.7,6.7 49.7,7.8 L20.6,7.8 L20.6,5.1 L48.9,5.1 Z" id="Shape"></path>
                <g id="Group" transform="translate(0.000000, 5.000000)">
                    <rect id="Rectangle-path" x="0" y="0.1" width="18.2" height="2.7"></rect>
                </g>
                <polygon id="Shape" points="74.6 12.8 75.5 10.1 88.6 10.1 88.6 12.8"></polygon>
                <polygon id="Shape" points="70.2 10.1 71.2 12.8 57.3 12.8 57.3 10.1"></polygon>
                <path d="M49.9,10.1 C49.9,11 49.8,12 49.5,12.8 L41.5,12.8 L41.5,10.1 L49.9,10.1 L49.9,10.1 Z" id="Shape"></path>
                <g id="Group" transform="translate(5.000000, 10.000000)">
                    <rect id="Rectangle-path" x="0.1" y="0.1" width="7.8" height="2.7"></rect>
                </g>
                <g id="Group" transform="translate(25.000000, 10.000000)">
                    <rect id="Rectangle-path" x="0.9" y="0.1" width="7.8" height="2.7"></rect>
                </g>
                <path d="M65,15.7 C65,15.7 65,17.7 65,17.7 L57.3,17.7 L57.3,15 L72,15 L72.9,17.5 C72.9,17.5 73.8,15 73.8,15 L88.6,15 L88.6,17.7 L80.9,17.7 C80.9,17.7 80.9,15.7 80.9,15.7 L80.2,17.7 L65.7,17.7 L65,15.7 Z" id="Shape"></path>
                <path d="M25.9,15.1 L48.4,15.1 L48.4,15.1 C47.9,16 47,17.1 46.2,17.8 C46.2,17.8 26,17.8 26,17.8 C25.9,17.7 25.9,15.1 25.9,15.1 Z" id="Shape"></path>
                <g id="Group" transform="translate(5.000000, 15.000000)">
                    <rect id="Rectangle-path" x="0.1" y="0.1" width="7.8" height="2.7"></rect>
                </g>
                <g id="Group" transform="translate(80.000000, 20.000000)">
                    <rect id="Rectangle-path" x="0.9" y="0.1" width="7.7" height="2.7"></rect>
                </g>
                <path d="M65,20.1 L57.3,20.1 L57.3,22.8 C57.3,22.8 65,22.8 65,22.8 C65,22.8 65,20.1 65,20.1 Z" id="Shape"></path>
                <path d="M79.4,20.1 C79.4,20.1 78.5,22.8 78.5,22.8 L67.6,22.8 C67.6,22.8 66.6,20.1 66.6,20.1 L79.4,20.1 Z" id="Shape"></path>
                <path d="M25.9,20.1 L46.1,20.1 C47,20.9 47.9,21.8 48.5,22.8 C48.5,22.8 25.9,22.8 25.9,22.8 C25.9,22.8 25.9,20.1 25.9,20.1 Z" id="Shape"></path>
                <polygon id="Shape" points="12.9 22.8 12.9 20.1 5.1 20.1 5.1 22.8"></polygon>
                <g id="Group" transform="translate(80.000000, 25.000000)">
                    <rect id="Rectangle-path" x="0.9" y="0.2" width="7.7" height="2.7"></rect>
                </g>
                <g id="Group" transform="translate(57.000000, 25.000000)">
                    <rect id="Rectangle-path" x="0.3" y="0.2" width="7.7" height="2.7"></rect>
                </g>
                <path d="M76.6,27.9 C76.6,27.9 77.5,25.2 77.6,25.2 L68.3,25.2 C68.3,25.2 69.3,27.9 69.3,27.9 C69.3,27.9 76.6,27.9 76.6,27.9 Z" id="Shape"></path>
                <path d="M25.9,27.8 C25.9,27.8 25.9,25.1 25.9,25.1 L33.8,25.1 C33.8,25.1 33.8,27.8 33.8,27.8 C33.8,27.8 25.9,27.8 25.9,27.8 Z" id="Shape"></path>
                <path d="M49.6,25.2 C50,26 50,27 50.1,27.9 L41.7,27.9 L41.7,25.2 L49.6,25.2 Z" id="Shape"></path>
                <g id="Group" transform="translate(5.000000, 25.000000)">
                    <rect id="Rectangle-path" x="0.1" y="0.2" width="7.8" height="2.7"></rect>
                </g>
                <g id="Group" transform="translate(80.000000, 30.000000)">
                    <rect id="Rectangle-path" x="0.9" y="0.1" width="12.8" height="2.7"></rect>
                </g>
                <g id="Group" transform="translate(52.000000, 30.000000)">
                    <rect id="Rectangle-path" x="0.1" y="0.1" width="12.8" height="2.7"></rect>
                </g>
                <polygon id="Shape" points="74.9 32.8 71 32.8 70 30.1 75.8 30.1"></polygon>
                <path d="M0,30.1 L0,32.8 L18.2,32.8 C18.2,32.8 18.2,30.1 18.2,30.1 C18.2,30.1 0,30.1 0,30.1 Z" id="Shape"></path>
                <path d="M49.8,30.1 C49.6,31 49.4,32.1 48.8,32.8 L48.6,32.8 L20.6,32.8 L20.6,30.1 L49.8,30.1 L49.8,30.1 Z" id="Shape"></path>
                <polygon id="Shape" points="73.1 37.8 72.8 37.8 71.8 35.2 74.1 35.2"></polygon>
                <g id="Group" transform="translate(80.000000, 35.000000)">
                    <rect id="Rectangle-path" x="0.9" y="0.2" width="12.8" height="2.7"></rect>
                </g>
                <path d="M20.6,37.8 L20.6,35.1 C20.6,35.1 46.9,35.1 47,35.1 C45.2,36.8 42.8,37.7 40.2,37.8 L20.6,37.8" id="Shape"></path>
                <g id="Group" transform="translate(52.000000, 35.000000)">
                    <rect id="Rectangle-path" x="0.1" y="0.2" width="12.8" height="2.7"></rect>
                </g>
                <path d="M18.2,35.2 C18.2,35.2 18.2,37.9 18.2,37.9 C18.2,37.9 0,37.9 0,37.9 C0,37.9 0,35.2 0,35.2 C0,35.2 18.2,35.2 18.2,35.2 Z" id="Shape"></path>
            </g>
        </g>
    </g>
</svg>
